;FLAVOR:UltiGCode
;TIME:16374
;MATERIAL:14300
;MATERIAL2:0
;NOZZLE_DIAMETER:0.4
;Generated with Cura_SteamEngine 2.3.1

;LAYER_COUNT:525
;LAYER:0
M107
G10
G0 F3200 X74.004 Y36.927 Z.27
;TYPE:SKIRT
G11
G1 F1200 X74.427 Y36.256 E0.07496
G1 X74.808 Y35.757 E0.13429
G1 X75.037 Y35.481 E0.16818
G1 X75.574 Y34.896 E0.24322
G1 X76.167 Y34.369 E0.31819
G1 X76.81 Y33.904 E0.39318
G1 X77.496 Y33.506 E0.46813
G1 X78.22 Y33.179 E0.5432
G1 X78.777 Y32.984 E0.59897
G1 X79.004 Y32.914 E0.62142
G1 X79.773 Y32.718 E0.69641
G1 X80.558 Y32.601 E0.77141
G1 X81.326 Y32.564 E0.84407
G1 X135.792 Y32.569 E5.99111
G1 X136.584 Y32.609 E6.06605
G1 X137.369 Y32.729 E6.14109
G1 X138.137 Y32.927 E6.21604
G1 X138.882 Y33.201 E6.29105
G1 X139.409 Y33.45 E6.34613
G1 X148.701 Y38.257 E7.33477
G1 X149.387 Y38.656 E7.40977
G1 X150.029 Y39.123 E7.48479
G1 X150.62 Y39.652 E7.55974
G1 X151.156 Y40.237 E7.63472
G1 X151.629 Y40.874 E7.7097
G1 X152.037 Y41.555 E7.78472
G1 X152.373 Y42.273 E7.85963
G1 X152.636 Y43.022 E7.93465
G1 X152.822 Y43.793 E8.0096
G1 X152.929 Y44.58 E8.08465
G1 X152.958 Y45.251 E8.14812
G1 X152.958 Y59.683 E9.51195
G1 X152.918 Y60.475 E9.58689
G1 X152.799 Y61.26 E9.66192
G1 X152.601 Y62.028 E9.73687
G1 X152.326 Y62.773 E9.81191
G1 X151.979 Y63.486 E9.88685
G1 X151.561 Y64.161 E9.96187
G1 X151.078 Y64.79 E10.03682
G1 X150.533 Y65.367 E10.11182
G1 X149.934 Y65.887 E10.18678
G1 X149.285 Y66.343 E10.26174
G1 X148.712 Y66.672 E10.32418
G1 X139.47 Y71.471 E11.30827
G1 X138.748 Y71.801 E11.38329
G1 X137.997 Y72.056 E11.45824
G1 X137.224 Y72.235 E11.53322
G1 X136.437 Y72.334 E11.60818
G1 X135.842 Y72.357 E11.66445
G1 X81.309 Y72.367 E16.81781
G1 X80.517 Y72.327 E16.89275
G1 X79.733 Y72.208 E16.96769
G1 X78.964 Y72.01 E17.04273
G1 X78.219 Y71.736 E17.11774
G1 X77.441 Y71.352 E17.19973
G1 X77.088 Y71.153 E17.23803
G1 X76.417 Y70.729 E17.31303
G1 X75.792 Y70.24 E17.38803
G1 X75.22 Y69.69 E17.46301
G1 X74.706 Y69.086 E17.53796
G1 X74.256 Y68.432 E17.61298
G1 X73.873 Y67.737 E17.68797
G1 X73.603 Y67.115 E17.75205
G1 X73.484 Y66.805 E17.78343
G1 X73.237 Y66.051 E17.85841
G1 X73.068 Y65.276 E17.93337
G1 X72.977 Y64.488 E18.00833
G1 X72.961 Y63.998 E18.05466
G1 X72.959 Y62.699 E18.17741
G1 X72.684 Y62.166 E18.23409
G1 X72.394 Y61.427 E18.30911
G1 X72.179 Y60.664 E18.38402
G1 X72.042 Y59.882 E18.45905
G1 X71.983 Y58.902 E18.55183
G1 X72.01 Y45.954 E19.77541
G1 X72.052 Y45.161 E19.85046
G1 X72.173 Y44.377 E19.92542
G1 X72.372 Y43.609 E20.0004
G1 X72.648 Y42.865 E20.07539
G1 X72.982 Y42.182 E20.14723
G1 X72.994 Y40.722 E20.28521
G1 X73.041 Y39.93 E20.36018
G1 X73.166 Y39.147 E20.43511
G1 X73.37 Y38.38 E20.51012
G1 X73.65 Y37.638 E20.58506
G1 X74.004 Y36.927 E20.66012
G0 F3200 X74.352 Y37.023
G1 F1200 X74.774 Y36.372 E20.73343
G1 X75.078 Y35.98 E20.78031
G1 X75.307 Y35.704 E20.8142
G1 X75.832 Y35.133 E20.8875
G1 X76.414 Y34.62 E20.96082
G1 X77.045 Y34.169 E21.03411
G1 X77.719 Y33.785 E21.10742
G1 X78.429 Y33.473 E21.1807
G1 X78.881 Y33.318 E21.22586
G1 X79.108 Y33.248 E21.24831
G1 X79.86 Y33.058 E21.3216
G1 X80.627 Y32.946 E21.39485
G1 X81.326 Y32.914 E21.46098
G1 X135.792 Y32.919 E26.60802
G1 X136.566 Y32.959 E26.68126
G1 X137.333 Y33.079 E26.75462
G1 X138.083 Y33.276 E26.8279
G1 X138.808 Y33.55 E26.90114
G1 X139.249 Y33.76 E26.9473
G1 X148.541 Y38.567 E27.93594
G1 X149.21 Y38.959 E28.00921
G1 X149.836 Y39.417 E28.08251
G1 X150.411 Y39.937 E28.15577
G1 X150.93 Y40.514 E28.22911
G1 X151.386 Y41.141 E28.30237
G1 X151.776 Y41.812 E28.37572
G1 X152.095 Y42.519 E28.44901
G1 X152.339 Y43.255 E28.52229
G1 X152.505 Y44.013 E28.59562
G1 X152.593 Y44.783 E28.66886
G1 X152.608 Y45.251 E28.7131
G1 X152.608 Y59.683 E30.07693
G1 X152.568 Y60.458 E30.15026
G1 X152.449 Y61.224 E30.22352
G1 X152.251 Y61.974 E30.29682
G1 X151.977 Y62.7 E30.37015
G1 X151.63 Y63.393 E30.44339
G1 X151.213 Y64.047 E30.51669
G1 X150.731 Y64.655 E30.59001
G1 X150.189 Y65.21 E30.66332
G1 X149.593 Y65.707 E30.73665
G1 X148.949 Y66.139 E30.80994
G1 X148.551 Y66.361 E30.853
G1 X139.309 Y71.16 E31.8371
G1 X138.603 Y71.482 E31.91042
G1 X137.868 Y71.729 E31.9837
G1 X137.111 Y71.899 E32.05702
G1 X136.341 Y71.99 E32.13029
G1 X135.842 Y72.007 E32.17747
G1 X81.309 Y72.017 E37.33084
G1 X80.535 Y71.977 E37.40408
G1 X79.768 Y71.858 E37.47743
G1 X79.018 Y71.66 E37.55073
G1 X78.293 Y71.386 E37.62397
G1 X77.613 Y71.047 E37.69578
G1 X77.26 Y70.848 E37.73407
G1 X76.604 Y70.433 E37.80743
G1 X75.996 Y69.952 E37.88069
G1 X75.439 Y69.412 E37.954
G1 X74.942 Y68.817 E38.02726
G1 X74.508 Y68.174 E38.10057
G1 X74.143 Y67.49 E38.17384
G1 X73.93 Y66.99 E38.2252
G1 X73.811 Y66.68 E38.25658
G1 X73.571 Y65.942 E38.32991
G1 X73.407 Y65.184 E38.4032
G1 X73.323 Y64.413 E38.47649
G1 X73.311 Y63.997 E38.51582
G1 X73.308 Y62.622 E38.64576
G1 X72.967 Y61.942 E38.71764
G1 X72.693 Y61.216 E38.79098
G1 X72.494 Y60.467 E38.86421
G1 X72.374 Y59.7 E38.93757
G1 X72.333 Y58.902 E39.01309
G1 X72.36 Y45.954 E40.23667
G1 X72.402 Y45.18 E40.30992
G1 X72.523 Y44.414 E40.38321
G1 X72.722 Y43.664 E40.45654
G1 X72.997 Y42.939 E40.52981
G1 X73.332 Y42.274 E40.60018
G1 X73.344 Y40.725 E40.74656
G1 X73.39 Y39.951 E40.81983
G1 X73.516 Y39.185 E40.89319
G1 X73.72 Y38.437 E40.96646
G1 X73.999 Y37.714 E41.0397
G1 X74.352 Y37.023 E41.11302
G0 F3200 X74.7 Y37.121
G1 F1200 X75.347 Y36.203 E41.21916
G1 X75.576 Y35.927 E41.25305
G1 X76.09 Y35.371 E41.3246
G1 X76.659 Y34.872 E41.39612
G1 X77.278 Y34.435 E41.46772
G1 X77.94 Y34.066 E41.53934
G1 X78.984 Y33.653 E41.64544
G1 X79.211 Y33.583 E41.66789
G1 X79.945 Y33.398 E41.73942
G1 X80.695 Y33.292 E41.811
G1 X81.326 Y33.264 E41.87069
G1 X135.792 Y33.269 E47.01773
G1 X136.548 Y33.309 E47.08927
G1 X137.296 Y33.429 E47.16086
G1 X138.027 Y33.626 E47.2324
G1 X138.733 Y33.9 E47.30397
G1 X139.088 Y34.071 E47.3412
G1 X148.38 Y38.878 E48.32984
G1 X149.033 Y39.261 E48.40138
G1 X149.643 Y39.711 E48.47301
G1 X150.201 Y40.223 E48.54458
G1 X150.703 Y40.79 E48.61614
G1 X151.142 Y41.407 E48.6877
G1 X151.513 Y42.067 E48.75925
G1 X151.813 Y42.763 E48.83087
G1 X152.038 Y43.486 E48.90243
G1 X152.185 Y44.229 E48.974
G1 X152.258 Y45.251 E49.07083
G1 X152.258 Y59.683 E50.43465
G1 X152.218 Y60.439 E50.50619
G1 X152.099 Y61.187 E50.57777
G1 X151.901 Y61.918 E50.64934
G1 X151.627 Y62.625 E50.72099
G1 X151.281 Y63.298 E50.7925
G1 X150.865 Y63.931 E50.86408
G1 X150.385 Y64.517 E50.93566
G1 X149.846 Y65.049 E51.00723
G1 X149.254 Y65.521 E51.07878
G1 X148.389 Y66.051 E51.17465
G1 X139.147 Y70.85 E52.15874
G1 X138.458 Y71.163 E52.23026
G1 X137.739 Y71.401 E52.30183
G1 X136.999 Y71.563 E52.37341
G1 X136.246 Y71.646 E52.445
G1 X135.842 Y71.657 E52.48319
G1 X81.309 Y71.667 E57.63656
G1 X80.553 Y71.627 E57.7081
G1 X79.805 Y71.508 E57.77968
G1 X79.074 Y71.31 E57.85125
G1 X78.368 Y71.037 E57.92278
G1 X77.784 Y70.742 E57.98461
G1 X77.431 Y70.543 E58.0229
G1 X76.792 Y70.137 E58.09445
G1 X76.199 Y69.666 E58.16601
G1 X75.66 Y69.134 E58.23758
G1 X75.179 Y68.549 E58.30915
G1 X74.762 Y67.917 E58.3807
G1 X74.415 Y67.244 E58.45226
G1 X74.257 Y66.864 E58.49115
G1 X74.138 Y66.554 E58.52252
G1 X73.904 Y65.834 E58.59407
G1 X73.747 Y65.093 E58.66565
G1 X73.661 Y63.996 E58.76963
G1 X73.658 Y62.517 E58.9094
G1 X73.585 Y62.4 E58.92243
G1 X73.252 Y61.719 E58.99407
G1 X72.994 Y61.007 E59.06563
G1 X72.812 Y60.272 E59.13719
G1 X72.708 Y59.522 E59.20874
G1 X72.683 Y58.903 E59.26728
G1 X72.71 Y45.955 E60.49087
G1 X72.752 Y45.199 E60.56242
G1 X72.873 Y44.451 E60.63403
G1 X73.072 Y43.72 E60.70562
G1 X73.347 Y43.015 E60.77713
G1 X73.681 Y42.369 E60.84586
G1 X73.694 Y40.728 E61.00094
G1 X73.74 Y39.972 E61.07251
G1 X73.866 Y39.225 E61.1441
G1 X74.069 Y38.495 E61.2157
G1 X74.348 Y37.791 E61.28726
G1 X74.7 Y37.121 E61.35879
G0 F3200 X75.048 Y37.221
G1 F1200 X75.617 Y36.427 E61.4511
G1 X75.846 Y36.151 E61.48499
G1 X76.347 Y35.609 E61.55473
G1 X76.905 Y35.124 E61.6246
G1 X77.511 Y34.703 E61.69433
G1 X78.16 Y34.349 E61.76419
G1 X79.087 Y33.987 E61.85824
G1 X79.314 Y33.917 E61.88068
G1 X80.03 Y33.738 E61.95043
G1 X80.762 Y33.637 E62.02026
G1 X81.326 Y33.614 E62.0736
G1 X135.792 Y33.619 E67.22064
G1 X136.529 Y33.659 E67.29039
G1 X137.258 Y33.779 E67.3602
G1 X137.97 Y33.976 E67.43002
G1 X138.927 Y34.382 E67.52825
G1 X148.219 Y39.189 E68.51689
G1 X148.856 Y39.564 E68.58674
G1 X149.448 Y40.005 E68.6565
G1 X149.99 Y40.507 E68.72632
G1 X150.474 Y41.065 E68.79612
G1 X150.894 Y41.672 E68.86587
G1 X151.247 Y42.321 E68.93569
G1 X151.528 Y43.004 E69.00548
G1 X151.733 Y43.714 E69.07532
G1 X151.86 Y44.442 E69.14515
G1 X151.908 Y45.251 E69.22174
G1 X151.908 Y59.683 E70.58556
G1 X151.868 Y60.421 E70.65541
G1 X151.749 Y61.149 E70.72511
G1 X151.551 Y61.861 E70.79495
G1 X151.278 Y62.547 E70.86472
G1 X150.932 Y63.2 E70.93456
G1 X150.518 Y63.812 E71.00438
G1 X150.04 Y64.375 E71.07418
G1 X149.504 Y64.883 E71.14396
G1 X148.916 Y65.33 E71.21376
G1 X148.228 Y65.74 E71.28945
G1 X138.986 Y70.539 E72.27354
G1 X138.313 Y70.844 E72.34337
G1 X137.611 Y71.073 E72.41315
G1 X136.889 Y71.226 E72.48289
G1 X135.842 Y71.307 E72.58213
G1 X81.309 Y71.317 E77.7355
G1 X80.572 Y71.277 E77.80524
G1 X79.843 Y71.158 E77.87505
G1 X79.131 Y70.96 E77.94488
G1 X78.445 Y70.687 E78.01466
G1 X77.956 Y70.437 E78.06656
G1 X77.603 Y70.238 E78.10485
G1 X76.98 Y69.841 E78.17466
G1 X76.404 Y69.379 E78.24444
G1 X75.881 Y68.858 E78.3142
G1 X75.418 Y68.283 E78.38396
G1 X75.019 Y67.661 E78.4538
G1 X74.583 Y66.739 E78.55018
G1 X74.464 Y66.429 E78.58156
G1 X74.237 Y65.726 E78.65137
G1 X74.088 Y65.003 E78.72113
G1 X74.011 Y63.996 E78.81657
G1 X74.008 Y62.415 E78.96597
G1 X73.855 Y62.166 E78.99359
G1 X73.54 Y61.498 E79.06338
G1 X73.298 Y60.8 E79.13319
G1 X73.133 Y60.08 E79.203
G1 X73.046 Y59.347 E79.27275
G1 X73.033 Y58.904 E79.31463
G1 X73.06 Y45.956 E80.53822
G1 X73.102 Y45.218 E80.60808
G1 X73.222 Y44.49 E80.6778
G1 X73.421 Y43.778 E80.74766
G1 X73.696 Y43.093 E80.81742
G1 X74.03 Y42.465 E80.88463
G1 X74.044 Y40.731 E81.0485
G1 X74.09 Y39.993 E81.11838
G1 X74.215 Y39.265 E81.18818
G1 X74.418 Y38.555 E81.25797
G1 X74.697 Y37.871 E81.32777
G1 X75.048 Y37.221 E81.39758
G0 F3200 X75.396 Y37.325
G1 F1200 X75.886 Y36.65 E81.4764
G1 X76.115 Y36.374 E81.5103
G1 X76.604 Y35.847 E81.57823
G1 X77.149 Y35.377 E81.64624
G1 X77.743 Y34.971 E81.71423
G1 X78.378 Y34.633 E81.78221
G1 X79.19 Y34.322 E81.86438
G1 X79.417 Y34.252 E81.88683
G1 X80.115 Y34.078 E81.95481
G1 X80.828 Y33.983 E82.02278
G1 X81.326 Y33.964 E82.06988
G1 X135.792 Y33.969 E87.21692
G1 X136.51 Y34.009 E87.28487
G1 X137.219 Y34.129 E87.35283
G1 X137.911 Y34.326 E87.42082
G1 X138.766 Y34.693 E87.50875
G1 X148.058 Y39.5 E88.49738
G1 X148.678 Y39.866 E88.56542
G1 X149.253 Y40.298 E88.63338
G1 X149.777 Y40.791 E88.70137
G1 X150.243 Y41.339 E88.76935
G1 X150.645 Y41.936 E88.83737
G1 X150.978 Y42.573 E88.90529
G1 X151.239 Y43.244 E88.97333
G1 X151.424 Y43.939 E89.04129
G1 X151.53 Y44.651 E89.10932
G1 X151.558 Y45.251 E89.16608
G1 X151.558 Y59.683 E90.5299
G1 X151.518 Y60.401 E90.59786
G1 X151.399 Y61.111 E90.66589
G1 X151.201 Y61.803 E90.73391
G1 X150.928 Y62.468 E90.80184
G1 X150.583 Y63.1 E90.86988
G1 X150.17 Y63.689 E90.93787
G1 X149.694 Y64.228 E91.00582
G1 X149.162 Y64.712 E91.07379
G1 X148.579 Y65.133 E91.14174
G1 X148.067 Y65.429 E91.19763
G1 X138.825 Y70.228 E92.18172
G1 X138.169 Y70.524 E92.24973
G1 X137.484 Y70.745 E92.31775
G1 X136.779 Y70.889 E92.38575
G1 X135.842 Y70.957 E92.47453
G1 X81.309 Y70.967 E97.6279
G1 X80.591 Y70.927 E97.69586
G1 X79.881 Y70.808 E97.76389
G1 X79.189 Y70.611 E97.83188
G1 X78.524 Y70.338 E97.89981
G1 X78.128 Y70.132 E97.94199
G1 X77.775 Y69.933 E97.98029
G1 X77.169 Y69.546 E98.04824
G1 X76.61 Y69.093 E98.11623
G1 X76.104 Y68.582 E98.18419
G1 X75.658 Y68.017 E98.25221
G1 X75.278 Y67.407 E98.32013
G1 X74.91 Y66.613 E98.40283
G1 X74.791 Y66.303 E98.4342
G1 X74.571 Y65.619 E98.5021
G1 X74.428 Y64.913 E98.57018
G1 X74.361 Y63.995 E98.65716
G1 X74.358 Y62.317 E98.81573
G1 X74.128 Y61.934 E98.85795
G1 X73.829 Y61.279 E98.92599
G1 X73.604 Y60.596 E98.99394
G1 X73.457 Y59.892 E99.06191
G1 X73.383 Y58.904 E99.15553
G1 X73.41 Y45.956 E100.37912
G1 X73.451 Y45.238 E100.44708
G1 X73.572 Y44.529 E100.51505
G1 X73.771 Y43.838 E100.58301
G1 X74.046 Y43.173 E100.65101
G1 X74.379 Y42.565 E100.71652
G1 X74.394 Y40.733 E100.88965
G1 X74.44 Y40.015 E100.95764
G1 X74.565 Y39.307 E101.02558
G1 X74.768 Y38.617 E101.09355
G1 X75.046 Y37.953 E101.16158
G1 X75.396 Y37.325 E101.22952
G0 F3200 X75.744 Y37.431
G1 F1200 X76.155 Y36.874 E101.29493
G1 X76.384 Y36.598 E101.32882
G1 X76.861 Y36.086 E101.39495
G1 X77.393 Y35.631 E101.4611
G1 X77.974 Y35.241 E101.52723
G1 X78.595 Y34.919 E101.59333
G1 X79.293 Y34.656 E101.66382
G1 X79.52 Y34.586 E101.68627
G1 X80.199 Y34.418 E101.75237
G1 X80.893 Y34.329 E101.81849
G1 X81.326 Y34.314 E101.85943
G1 X135.792 Y34.319 E107.00647
G1 X136.49 Y34.359 E107.07254
G1 X137.18 Y34.478 E107.13871
G1 X137.851 Y34.676 E107.20482
G1 X138.605 Y35.004 E107.28252
G1 X147.897 Y39.811 E108.27116
G1 X148.499 Y40.167 E108.33725
G1 X149.057 Y40.59 E108.40342
G1 X149.563 Y41.074 E108.46959
G1 X150.01 Y41.612 E108.53569
G1 X150.393 Y42.198 E108.60185
G1 X150.706 Y42.823 E108.6679
G1 X150.946 Y43.48 E108.734
G1 X151.11 Y44.161 E108.8002
G1 X151.195 Y44.855 E108.86627
G1 X151.208 Y45.251 E108.90371
G1 X151.208 Y59.683 E110.26753
G1 X151.168 Y60.382 E110.3337
G1 X151.049 Y61.071 E110.39977
G1 X150.851 Y61.742 E110.46588
G1 X150.579 Y62.387 E110.53204
G1 X150.235 Y62.996 E110.59813
G1 X149.823 Y63.562 E110.66429
G1 X149.35 Y64.077 E110.73037
G1 X148.821 Y64.535 E110.79649
G1 X148.243 Y64.93 E110.86265
G1 X147.906 Y65.119 E110.89916
G1 X138.664 Y69.918 E111.88326
G1 X138.025 Y70.204 E111.94941
G1 X137.358 Y70.416 E112.01555
G1 X136.672 Y70.55 E112.08161
G1 X135.842 Y70.607 E112.16022
G1 X81.309 Y70.617 E117.31359
G1 X80.611 Y70.577 E117.37966
G1 X79.921 Y70.458 E117.44583
G1 X79.25 Y70.261 E117.51192
G1 X78.3 Y69.828 E117.61058
G1 X77.947 Y69.629 E117.64887
G1 X77.358 Y69.251 E117.71501
G1 X76.816 Y68.808 E117.78116
G1 X76.328 Y68.307 E117.84725
G1 X75.901 Y67.753 E117.91335
G1 X75.539 Y67.154 E117.97949
G1 X75.237 Y66.488 E118.04859
G1 X75.118 Y66.178 E118.07997
G1 X74.905 Y65.512 E118.14605
G1 X74.769 Y64.825 E118.21223
G1 X74.711 Y63.994 E118.29095
G1 X74.708 Y62.224 E118.45822
G1 X74.402 Y61.702 E118.5154
G1 X74.12 Y61.062 E118.58149
G1 X73.913 Y60.394 E118.64758
G1 X73.784 Y59.706 E118.71373
G1 X73.733 Y58.905 E118.78957
G1 X73.76 Y45.957 E120.01316
G1 X73.801 Y45.259 E120.07924
G1 X73.922 Y44.57 E120.14534
G1 X74.121 Y43.899 E120.21148
G1 X74.395 Y43.255 E120.27762
G1 X74.729 Y42.666 E120.34161
G1 X74.744 Y40.736 E120.524
G1 X74.79 Y40.038 E120.5901
G1 X74.915 Y39.35 E120.65618
G1 X75.117 Y38.68 E120.72231
G1 X75.395 Y38.037 E120.78851
G1 X75.744 Y37.431 E120.8546
G10
G0 F3200 X76.425 Y37.097
G11
G1 F1200 X76.654 Y36.821 E120.88849
G1 X77.117 Y36.325 E120.95261
G1 X77.636 Y35.886 E121.01684
G1 X78.203 Y35.512 E121.08103
G1 X78.81 Y35.207 E121.14523
G1 X79.396 Y34.99 E121.20428
G1 X79.623 Y34.92 E121.22673
G1 X80.283 Y34.759 E121.29093
G1 X80.957 Y34.676 E121.3551
G1 X81.326 Y34.664 E121.38999
G1 X135.792 Y34.669 E126.53703
G1 X136.47 Y34.709 E126.60121
G1 X137.139 Y34.828 E126.66542
G1 X137.789 Y35.026 E126.72963
G1 X138.445 Y35.315 E126.79738
G1 X147.737 Y40.122 E127.78601
G1 X148.321 Y40.469 E127.85021
G1 X148.86 Y40.882 E127.91438
G1 X149.347 Y41.356 E127.9786
G1 X149.775 Y41.884 E128.04283
G1 X150.138 Y42.458 E128.10701
G1 X150.431 Y43.071 E128.17121
G1 X150.65 Y43.714 E128.2354
G1 X150.792 Y44.378 E128.29957
G1 X150.858 Y45.251 E128.3823
G1 X150.858 Y59.683 E129.74613
G1 X150.818 Y60.361 E129.81031
G1 X150.699 Y61.03 E129.87452
G1 X150.502 Y61.68 E129.93871
G1 X150.23 Y62.303 E130.00295
G1 X149.886 Y62.889 E130.06716
G1 X149.476 Y63.431 E130.13138
G1 X149.006 Y63.921 E130.19555
G1 X148.481 Y64.352 E130.25974
G1 X147.744 Y64.808 E130.34164
G1 X138.502 Y69.607 E131.32573
G1 X137.882 Y69.884 E131.3899
G1 X137.233 Y70.087 E131.45416
G1 X136.566 Y70.211 E131.51827
G1 X135.842 Y70.257 E131.58683
G1 X81.309 Y70.267 E136.7402
G1 X80.631 Y70.227 E136.80438
G1 X79.962 Y70.108 E136.86859
G1 X79.312 Y69.911 E136.93278
G1 X78.472 Y69.523 E137.02022
